;Generated with Cura_SteamEngine 15.05
; Default start code
G28 ; Home extruder
G1 Z15 F100
M107 ; Turn off fan
G90 ; Absolute positioning
M82 ; Extruder in absolute mode
M190 S50
; Activate all used extruder
M104 T0 S210
G92 E0 ; Reset extruder position
; Wait for all used extruders to reach temperature
M109 T0 S210
;Layer count: 50
;LAYER:0
M107
G0 F9000 X91.000 Y91.000 Z0.300
;TYPE:SKIRT
G1 F1800 X109.000 Y91.000 E0.89802
G1 X109.000 Y109.000 E1.79605
G1 X91.000 Y109.000 E2.69407
G1 X91.000 Y91.000 E3.59209
G0 F9000 X91.400 Y91.400
G1 F1800 X108.600 Y91.400 E4.45021
G1 X108.600 Y108.600 E5.30832
G1 X91.400 Y108.600 E6.16643
G1 X91.400 Y91.400 E7.02454
G0 F9000 X91.800 Y91.800
G1 F1800 X108.200 Y91.800 E7.84274
G1 X108.200 Y108.200 E8.66094
G1 X91.800 Y108.200 E9.47914
G1 X91.800 Y91.800 E10.29734
G1 F2400 E6.29734
G0 F9000 X95.600 Y95.600
;TYPE:WALL-INNER
G1 F2400 E10.29734
G1 F1800 X104.400 Y95.600 E10.73637
G1 X104.400 Y104.400 E11.17541
G1 X95.600 Y104.400 E11.61444
G1 X95.600 Y95.600 E12.05347
G0 F9000 X95.200 Y95.200
;TYPE:WALL-OUTER
G1 F1800 X104.800 Y95.200 E12.53242
G1 X104.800 Y104.800 E13.01136
G1 X95.200 Y104.800 E13.49031
G1 X95.200 Y95.200 E13.96926
G0 F9000 X95.739 Y96.022
;TYPE:SKIN
G1 F1800 X103.976 Y104.259 E14.55042
G0 F9000 X104.259 Y103.976
G1 F1800 X96.022 Y95.740 E15.13155
G0 F9000 X96.588 Y95.740
G1 F1800 X104.259 Y103.410 E15.67275
G0 F9000 X104.259 Y102.845
G1 F1800 X97.154 Y95.740 E16.17404
G0 F9000 X97.720 Y95.740
G1 F1800 X104.259 Y102.279 E16.63540
G0 F9000 X104.259 Y101.713
G1 F1800 X98.285 Y95.740 E17.05687
G0 F9000 X98.851 Y95.740
G1 F1800 X104.259 Y101.148 E17.43843
G0 F9000 X104.259 Y100.582
G1 F1800 X99.417 Y95.740 E17.78006
G0 F9000 X99.982 Y95.740
G1 F1800 X104.259 Y100.016 E18.08179
G0 F9000 X103.410 Y104.259
G1 F1800 X95.739 Y96.587 E18.62306
G0 F9000 X95.739 Y97.153
G1 F1800 X102.845 Y104.259 E19.12442
G0 F9000 X102.279 Y104.259
G1 F1800 X95.739 Y97.719 E19.58585
G0 F9000 X95.739 Y98.285
G1 F1800 X101.713 Y104.259 E20.00735
G0 F9000 X101.148 Y104.259
G1 F1800 X95.739 Y98.850 E20.38899
G0 F9000 X95.739 Y99.416
G1 F1800 X100.582 Y104.259 E20.73069
G0 F9000 X100.016 Y104.259
G1 F1800 X95.739 Y99.982 E21.03245
G0 F9000 X95.739 Y100.547
G1 F1800 X99.451 Y104.259 E21.29435
G0 F9000 X98.885 Y104.259
G1 F1800 X95.739 Y101.113 E21.51632
G0 F9000 X95.739 Y101.679
G1 F1800 X98.319 Y104.259 E21.69835
G0 F9000 X97.753 Y104.259
G1 F1800 X95.739 Y102.244 E21.84049
G0 F9000 X95.739 Y102.810
G1 F1800 X97.188 Y104.259 E21.94272
G0 F9000 X96.622 Y104.259
G1 F1800 X95.739 Y103.376 E22.00502
G0 F9000 X95.739 Y103.941
G1 F1800 X96.056 Y104.259 E22.02742
G0 F9000 X104.259 Y99.451
G1 F1800 X100.548 Y95.740 E22.28926
G0 F9000 X101.114 Y95.740
G1 F1800 X104.259 Y98.885 E22.51115
G0 F9000 X104.259 Y98.319
G1 F1800 X101.679 Y95.740 E22.69315
G0 F9000 X102.245 Y95.740
G1 F1800 X104.259 Y97.753 E22.83521
G0 F9000 X104.259 Y97.188
G1 F1800 X102.811 Y95.740 E22.93738
G0 F9000 X103.376 Y95.740
G1 F1800 X104.259 Y96.622 E22.99964
G0 F9000 X104.259 Y96.056
G1 F1800 X103.942 Y95.740 E23.02197
;LAYER:1
M106 S63
G0 F9000 X104.400 Y95.600 Z0.500
;TYPE:WALL-INNER
G1 F2520 X104.400 Y104.400 E23.31466
G1 X95.600 Y104.400 E23.60735
G1 X95.600 Y95.600 E23.90004
G1 X104.400 Y95.600 E24.19273
G0 F9000 X104.800 Y95.200
;TYPE:WALL-OUTER
G1 F1980 X104.800 Y104.800 E24.51203
G1 X95.200 Y104.800 E24.83132
G1 X95.200 Y95.200 E25.15062
G1 X104.800 Y95.200 E25.46992
G0 F9000 X104.230 Y95.739
;TYPE:SKIN
G1 F1980 X95.740 Y104.229 E25.86926
G0 F9000 X96.276 Y104.259
G1 F1980 X104.259 Y96.276 E26.24476
G0 F9000 X104.259 Y96.841
G1 F1980 X96.841 Y104.259 E26.59368
G0 F9000 X97.407 Y104.259
G1 F1980 X104.259 Y97.407 E26.91598
G0 F9000 X104.259 Y97.973
G1 F1980 X97.973 Y104.259 E27.21165
G0 F9000 X98.538 Y104.259
G1 F1980 X104.259 Y98.538 E27.48075
G0 F9000 X104.259 Y99.104
G1 F1980 X99.104 Y104.259 E27.72322
G0 F9000 X99.670 Y104.259
G1 F1980 X104.259 Y99.670 E27.93908
G0 F9000 X103.664 Y95.739
G1 F1980 X95.740 Y103.663 E28.31180
G0 F9000 X95.740 Y103.098
G1 F1980 X103.098 Y95.739 E28.65792
G0 F9000 X102.533 Y95.739
G1 F1980 X95.740 Y102.532 E28.97744
G0 F9000 X95.740 Y101.966
G1 F1980 X101.967 Y95.739 E29.27034
G0 F9000 X101.401 Y95.739
G1 F1980 X95.740 Y101.401 E29.53664
G0 F9000 X95.740 Y100.835
G1 F1980 X100.836 Y95.739 E29.77634
G0 F9000 X100.270 Y95.739
G1 F1980 X95.740 Y100.269 E29.98942
G0 F9000 X95.740 Y99.704
G1 F1980 X99.704 Y95.739 E30.17589
G0 F9000 X99.139 Y95.739
G1 F1980 X95.740 Y99.138 E30.33577
G0 F9000 X95.740 Y98.572
G1 F1980 X98.573 Y95.739 E30.46903
G0 F9000 X98.007 Y95.739
G1 F1980 X95.740 Y98.007 E30.57568
G0 F9000 X95.740 Y97.441
G1 F1980 X97.442 Y95.739 E30.65574
G0 F9000 X96.876 Y95.739
G1 F1980 X95.740 Y96.875 E30.70918
G0 F9000 X95.740 Y96.310
G1 F1980 X96.310 Y95.739 E30.73601
G0 F9000 X104.259 Y100.235
G1 F1980 X100.235 Y104.259 E30.92529
G0 F9000 X100.801 Y104.259
G1 F1980 X104.259 Y100.801 E31.08794
G0 F9000 X104.259 Y101.367
G1 F1980 X101.367 Y104.259 E31.22397
G0 F9000 X101.932 Y104.259
G1 F1980 X104.259 Y101.932 E31.33343
G0 F9000 X104.259 Y102.498
G1 F1980 X102.498 Y104.259 E31.41626
G0 F9000 X103.064 Y104.259
G1 F1980 X104.259 Y103.064 E31.47247
G0 F9000 X104.259 Y103.630
G1 F1980 X103.630 Y104.259 E31.50205
G0 F9000 X104.195 Y104.259
G1 F1980 X104.259 Y104.195 E31.50506
;LAYER:2
M106 S127
G0 F9000 X104.400 Y104.400 Z0.700
;TYPE:WALL-INNER
G1 F3300 X95.600 Y104.400 E31.79775
G1 X95.600 Y95.600 E32.09044
G1 X104.400 Y95.600 E32.38313
G1 X104.400 Y104.400 E32.67582
G0 F9000 X104.800 Y104.800
;TYPE:WALL-OUTER
G1 F2220 X95.200 Y104.800 E32.99512
G1 X95.200 Y95.200 E33.31442
G1 X104.800 Y95.200 E33.63371
G1 X104.800 Y104.800 E33.95301
G0 F9000 X103.976 Y104.259
;TYPE:SKIN
G1 F2220 X95.739 Y96.022 E34.34045
G0 F9000 X96.022 Y95.740
G1 F2220 X104.259 Y103.976 E34.72787
G0 F9000 X104.259 Y103.410
G1 F2220 X96.588 Y95.740 E35.08867
G0 F9000 X97.154 Y95.740
G1 F2220 X104.259 Y102.845 E35.42287
G0 F9000 X104.259 Y102.279
G1 F2220 X97.720 Y95.740 E35.73044
G0 F9000 X98.285 Y95.740
G1 F2220 X104.259 Y101.713 E36.01142
G0 F9000 X104.259 Y101.148
G1 F2220 X98.851 Y95.740 E36.26579
G0 F9000 X99.417 Y95.740
G1 F2220 X104.259 Y100.582 E36.49355
G0 F9000 X104.259 Y100.016
G1 F2220 X99.982 Y95.740 E36.69470
G0 F9000 X95.739 Y96.587
G1 F2220 X103.410 Y104.259 E37.05554
G0 F9000 X102.845 Y104.259
G1 F2220 X95.739 Y97.153 E37.38979
G0 F9000 X95.739 Y97.719
G1 F2220 X102.279 Y104.259 E37.69741
G0 F9000 X101.713 Y104.259
G1 F2220 X95.739 Y98.285 E37.97841
G0 F9000 X95.739 Y98.850
G1 F2220 X101.148 Y104.259 E38.23283
G0 F9000 X100.582 Y104.259
G1 F2220 X95.739 Y99.416 E38.46063
G0 F9000 X95.739 Y99.982
G1 F2220 X100.016 Y104.259 E38.66181
G0 F9000 X99.451 Y104.259
G1 F2220 X95.739 Y100.547 E38.83641
G0 F9000 X95.739 Y101.113
G1 F2220 X98.885 Y104.259 E38.98439
G0 F9000 X98.319 Y104.259
G1 F2220 X95.739 Y101.679 E39.10574
G0 F9000 X95.739 Y102.244
G1 F2220 X97.753 Y104.259 E39.20050
G0 F9000 X97.188 Y104.259
G1 F2220 X95.739 Y102.810 E39.26865
G0 F9000 X95.739 Y103.376
G1 F2220 X96.622 Y104.259 E39.31019
G0 F9000 X96.056 Y104.259
G1 F2220 X95.739 Y103.941 E39.32512
G0 F9000 X100.548 Y95.740
G1 F2220 X104.259 Y99.451 E39.49968
G0 F9000 X104.259 Y98.885
G1 F2220 X101.114 Y95.740 E39.64761
G0 F9000 X101.679 Y95.740
G1 F2220 X104.259 Y98.319 E39.76894
G0 F9000 X104.259 Y97.753
G1 F2220 X102.245 Y95.740 E39.86365
G0 F9000 X102.811 Y95.740
G1 F2220 X104.259 Y97.188 E39.93176
G0 F9000 X104.259 Y96.622
G1 F2220 X103.376 Y95.740 E39.97327
G0 F9000 X103.942 Y95.740
G1 F2220 X104.259 Y96.056 E39.98815
;LAYER:3
M106 S255
G0 F9000 X104.400 Y95.600 Z0.900
;TYPE:WALL-INNER
G1 F1560 X104.400 Y104.400 E40.28084
G1 X95.600 Y104.400 E40.57353
G1 X95.600 Y95.600 E40.86622
G1 X104.400 Y95.600 E41.15891
G0 F9000 X104.800 Y95.200
;TYPE:WALL-OUTER
G1 F960 X104.800 Y104.800 E41.47821
G1 X95.200 Y104.800 E41.79751
G1 X95.200 Y95.200 E42.11680
G1 X104.800 Y95.200 E42.43610
G0 F9000 X104.259 Y96.558
;TYPE:FILL
G1 F1560 X96.558 Y104.259 E42.79833
G0 F9000 X101.430 Y104.259
G1 F1560 X95.739 Y98.567 E43.06604
G0 F9000 X95.740 Y99.421
G1 F1560 X99.422 Y95.739 E43.23923
G0 F9000 X98.568 Y95.740
G1 F1560 X104.259 Y101.430 E43.50690
G0 F9000 X104.259 Y102.215
G1 F1560 X102.215 Y104.259 E43.60304
;LAYER:4
G0 F9000 X104.400 Y104.400 Z1.100
;TYPE:WALL-INNER
G1 F1680 X95.600 Y104.400 E43.89573
G1 X95.600 Y95.600 E44.18842
G1 X104.400 Y95.600 E44.48111
G1 X104.400 Y104.400 E44.77380
G0 F9000 X104.800 Y104.800
;TYPE:WALL-OUTER
G1 F900 X95.200 Y104.800 E45.09309
G1 X95.200 Y95.200 E45.41239
G1 X104.800 Y95.200 E45.73169
G1 X104.800 Y104.800 E46.05099
G0 F9000 X104.500 Y104.590
G0 X102.215 Y104.259
;TYPE:FILL
G1 F1680 X104.259 Y102.215 E46.14713
G0 F9000 X104.259 Y101.430
G1 F1680 X98.568 Y95.740 E46.41479
G0 F9000 X99.422 Y95.739
G1 F1680 X95.740 Y99.421 E46.58798
G0 F9000 X95.739 Y98.567
G1 F1680 X101.430 Y104.259 E46.85569
G0 F9000 X96.558 Y104.259
G1 F1680 X104.259 Y96.558 E47.21792
;LAYER:5
G0 F9000 X104.400 Y95.600 Z1.300
;TYPE:WALL-INNER
G1 F1680 X104.400 Y104.400 E47.51061
G1 X95.600 Y104.400 E47.80330
G1 X95.600 Y95.600 E48.09599
G1 X104.400 Y95.600 E48.38868
G0 F9000 X104.800 Y95.200
;TYPE:WALL-OUTER
G1 F900 X104.800 Y104.800 E48.70798
G1 X95.200 Y104.800 E49.02728
G1 X95.200 Y95.200 E49.34657
G1 X104.800 Y95.200 E49.66587
G0 F9000 X104.259 Y96.558
;TYPE:FILL
G1 F1680 X96.558 Y104.259 E50.02810
G0 F9000 X101.430 Y104.259
G1 F1680 X95.739 Y98.567 E50.29581
G0 F9000 X95.740 Y99.421
G1 F1680 X99.422 Y95.739 E50.46900
G0 F9000 X98.568 Y95.740
G1 F1680 X104.259 Y101.430 E50.73667
G0 F9000 X104.259 Y102.215
G1 F1680 X102.215 Y104.259 E50.83281
;LAYER:6
G0 F9000 X104.400 Y104.400 Z1.500
;TYPE:WALL-INNER
G1 F1680 X95.600 Y104.400 E51.12550
G1 X95.600 Y95.600 E51.41819
G1 X104.400 Y95.600 E51.71088
G1 X104.400 Y104.400 E52.00357
G0 F9000 X104.800 Y104.800
;TYPE:WALL-OUTER
G1 F900 X95.200 Y104.800 E52.32286
G1 X95.200 Y95.200 E52.64216
G1 X104.800 Y95.200 E52.96146
G1 X104.800 Y104.800 E53.28076
G0 F9000 X104.500 Y104.590
G0 X102.215 Y104.259
;TYPE:FILL
G1 F1680 X104.259 Y102.215 E53.37690
G0 F9000 X104.259 Y101.430
G1 F1680 X98.568 Y95.740 E53.64456
G0 F9000 X99.422 Y95.739
G1 F1680 X95.740 Y99.421 E53.81775
G0 F9000 X95.739 Y98.567
G1 F1680 X101.430 Y104.259 E54.08546
G0 F9000 X96.558 Y104.259
G1 F1680 X104.259 Y96.558 E54.44770
;LAYER:7
G0 F9000 X104.400 Y95.600 Z1.700
;TYPE:WALL-INNER
G1 F1680 X104.400 Y104.400 E54.74038
G1 X95.600 Y104.400 E55.03307
G1 X95.600 Y95.600 E55.32576
G1 X104.400 Y95.600 E55.61845
G0 F9000 X104.800 Y95.200
;TYPE:WALL-OUTER
G1 F900 X104.800 Y104.800 E55.93775
G1 X95.200 Y104.800 E56.25705
G1 X95.200 Y95.200 E56.57634
G1 X104.800 Y95.200 E56.89564
G0 F9000 X104.259 Y96.558
;TYPE:FILL
G1 F1680 X96.558 Y104.259 E57.25787
G0 F9000 X101.430 Y104.259
G1 F1680 X95.739 Y98.567 E57.52558
G0 F9000 X95.740 Y99.421
G1 F1680 X99.422 Y95.739 E57.69877
G0 F9000 X98.568 Y95.740
G1 F1680 X104.259 Y101.430 E57.96644
G0 F9000 X104.259 Y102.215
G1 F1680 X102.215 Y104.259 E58.06258
;LAYER:8
G0 F9000 X104.400 Y104.400 Z1.900
;TYPE:WALL-INNER
G1 F1680 X95.600 Y104.400 E58.35527
G1 X95.600 Y95.600 E58.64796
G1 X104.400 Y95.600 E58.94065
G1 X104.400 Y104.400 E59.23334
G0 F9000 X104.800 Y104.800
;TYPE:WALL-OUTER
G1 F900 X95.200 Y104.800 E59.55263
G1 X95.200 Y95.200 E59.87193
G1 X104.800 Y95.200 E60.19123
G1 X104.800 Y104.800 E60.51053
G0 F9000 X104.500 Y104.590
G0 X102.215 Y104.259
;TYPE:FILL
G1 F1680 X104.259 Y102.215 E60.60667
G0 F9000 X104.259 Y101.430
G1 F1680 X98.568 Y95.740 E60.87433
G0 F9000 X99.422 Y95.739
G1 F1680 X95.740 Y99.421 E61.04752
G0 F9000 X95.739 Y98.567
G1 F1680 X101.430 Y104.259 E61.31523
G0 F9000 X96.558 Y104.259
G1 F1680 X104.259 Y96.558 E61.67747
;LAYER:9
G0 F9000 X104.400 Y95.600 Z2.100
;TYPE:WALL-INNER
G1 F1680 X104.400 Y104.400 E61.97015
G1 X95.600 Y104.400 E62.26284
G1 X95.600 Y95.600 E62.55553
G1 X104.400 Y95.600 E62.84822
G0 F9000 X104.800 Y95.200
;TYPE:WALL-OUTER
G1 F900 X104.800 Y104.800 E63.16752
G1 X95.200 Y104.800 E63.48682
G1 X95.200 Y95.200 E63.80611
G1 X104.800 Y95.200 E64.12541
G0 F9000 X104.259 Y96.558
;TYPE:FILL
G1 F1680 X96.558 Y104.259 E64.48764
G0 F9000 X101.430 Y104.259
G1 F1680 X95.739 Y98.567 E64.75535
G0 F9000 X95.740 Y99.421
G1 F1680 X99.422 Y95.739 E64.92854
G0 F9000 X98.568 Y95.740
G1 F1680 X104.259 Y101.430 E65.19621
G0 F9000 X104.259 Y102.215
G1 F1680 X102.215 Y104.259 E65.29235
;LAYER:10
G0 F9000 X104.400 Y104.400 Z2.300
;TYPE:WALL-INNER
G1 F1680 X95.600 Y104.400 E65.58504
G1 X95.600 Y95.600 E65.87773
G1 X104.400 Y95.600 E66.17042
G1 X104.400 Y104.400 E66.46311
G0 F9000 X104.800 Y104.800
;TYPE:WALL-OUTER
G1 F900 X95.200 Y104.800 E66.78240
G1 X95.200 Y95.200 E67.10170
G1 X104.800 Y95.200 E67.42100
G1 X104.800 Y104.800 E67.74030
G0 F9000 X104.500 Y104.590
G0 X102.215 Y104.259
;TYPE:FILL
G1 F1680 X104.259 Y102.215 E67.83644
G0 F9000 X104.259 Y101.430
G1 F1680 X98.568 Y95.740 E68.10410
G0 F9000 X99.422 Y95.739
G1 F1680 X95.740 Y99.421 E68.27729
G0 F9000 X95.739 Y98.567
G1 F1680 X101.430 Y104.259 E68.54500
G0 F9000 X96.558 Y104.259
G1 F1680 X104.259 Y96.558 E68.90724
;LAYER:11
G0 F9000 X104.400 Y95.600 Z2.500
;TYPE:WALL-INNER
G1 F1680 X104.400 Y104.400 E69.19993
G1 X95.600 Y104.400 E69.49261
G1 X95.600 Y95.600 E69.78530
G1 X104.400 Y95.600 E70.07799
G0 F9000 X104.800 Y95.200
;TYPE:WALL-OUTER
G1 F900 X104.800 Y104.800 E70.39729
G1 X95.200 Y104.800 E70.71659
G1 X95.200 Y95.200 E71.03588
G1 X104.800 Y95.200 E71.35518
G0 F9000 X104.259 Y96.558
;TYPE:FILL
G1 F1680 X96.558 Y104.259 E71.71741
G0 F9000 X101.430 Y104.259
G1 F1680 X95.739 Y98.567 E71.98512
G0 F9000 X95.740 Y99.421
G1 F1680 X99.422 Y95.739 E72.15831
G0 F9000 X98.568 Y95.740
G1 F1680 X104.259 Y101.430 E72.42598
G0 F9000 X104.259 Y102.215
G1 F1680 X102.215 Y104.259 E72.52212
;LAYER:12
G0 F9000 X104.400 Y104.400 Z2.700
;TYPE:WALL-INNER
G1 F1680 X95.600 Y104.400 E72.81481
G1 X95.600 Y95.600 E73.10750
G1 X104.400 Y95.600 E73.40019
G1 X104.400 Y104.400 E73.69288
G0 F9000 X104.800 Y104.800
;TYPE:WALL-OUTER
G1 F900 X95.200 Y104.800 E74.01218
G1 X95.200 Y95.200 E74.33147
G1 X104.800 Y95.200 E74.65077
G1 X104.800 Y104.800 E74.97007
G0 F9000 X104.500 Y104.590
G0 X102.215 Y104.259
;TYPE:FILL
G1 F1680 X104.259 Y102.215 E75.06621
G0 F9000 X104.259 Y101.430
G1 F1680 X98.568 Y95.740 E75.33387
G0 F9000 X99.422 Y95.739
G1 F1680 X95.740 Y99.421 E75.50706
G0 F9000 X95.739 Y98.567
G1 F1680 X101.430 Y104.259 E75.77478
G0 F9000 X96.558 Y104.259
G1 F1680 X104.259 Y96.558 E76.13701
;LAYER:13
G0 F9000 X104.400 Y95.600 Z2.900
;TYPE:WALL-INNER
G1 F1680 X104.400 Y104.400 E76.42970
G1 X95.600 Y104.400 E76.72238
G1 X95.600 Y95.600 E77.01507
G1 X104.400 Y95.600 E77.30776
G0 F9000 X104.800 Y95.200
;TYPE:WALL-OUTER
G1 F900 X104.800 Y104.800 E77.62706
G1 X95.200 Y104.800 E77.94636
G1 X95.200 Y95.200 E78.26566
G1 X104.800 Y95.200 E78.58495
G0 F9000 X104.259 Y96.558
;TYPE:FILL
G1 F1680 X96.558 Y104.259 E78.94718
G0 F9000 X101.430 Y104.259
G1 F1680 X95.739 Y98.567 E79.21489
G0 F9000 X95.740 Y99.421
G1 F1680 X99.422 Y95.739 E79.38808
G0 F9000 X98.568 Y95.740
G1 F1680 X104.259 Y101.430 E79.65575
G0 F9000 X104.259 Y102.215
G1 F1680 X102.215 Y104.259 E79.75189
;LAYER:14
G0 F9000 X104.400 Y104.400 Z3.100
;TYPE:WALL-INNER
G1 F1680 X95.600 Y104.400 E80.04458
G1 X95.600 Y95.600 E80.33727
G1 X104.400 Y95.600 E80.62996
G1 X104.400 Y104.400 E80.92265
G0 F9000 X104.800 Y104.800
;TYPE:WALL-OUTER
G1 F900 X95.200 Y104.800 E81.24195
G1 X95.200 Y95.200 E81.56124
G1 X104.800 Y95.200 E81.88054
G1 X104.800 Y104.800 E82.19984
G0 F9000 X104.500 Y104.590
G0 X102.215 Y104.259
;TYPE:FILL
G1 F1680 X104.259 Y102.215 E82.29598
G0 F9000 X104.259 Y101.430
G1 F1680 X98.568 Y95.740 E82.56364
G0 F9000 X99.422 Y95.739
G1 F1680 X95.740 Y99.421 E82.73683
G0 F9000 X95.739 Y98.567
G1 F1680 X101.430 Y104.259 E83.00455
G0 F9000 X96.558 Y104.259
G1 F1680 X104.259 Y96.558 E83.36678
;LAYER:15
G0 F9000 X104.400 Y95.600 Z3.300
;TYPE:WALL-INNER
G1 F1680 X104.400 Y104.400 E83.65947
G1 X95.600 Y104.400 E83.95216
G1 X95.600 Y95.600 E84.24484
G1 X104.400 Y95.600 E84.53753
G0 F9000 X104.800 Y95.200
;TYPE:WALL-OUTER
